X: 28280
T: Mrs. McPherson Of Gibton
R: reel
M: 4/4
K: Fdorian
G|:cd edc2Gc|B/c/d GB FB DB,|cd edc2eg|dB fdc2cG|
cd edc2Gc|B/c/d GB FB DB,|gf ed ed cB|GB FDC4:|
|:cd eg cg eg|Bc de fb dB|1 cd ef gc ec|dB fdc2cG:|
[2 gf ed ed cB|GB FDC4||

